!!!!SEGMENT: pl-kk--kk-i-473--008_kalous-vaclav--missa-solemnis-dona.krn
!!!cenid: 17xx:1879
!!!COM: Kalous, Václav
!!!COM-rismid: pe30001658
!!!CDT: 1715-1786
!!!CNT: Czech
!!!OTL: Missa Solemnis – Dona
!!!PDT:
!!!AGN: Sacred; Mass
!!!SMS-siglum: PL-Kk
!!!SMS-shelfmark: Kk.I.473
!!!SMS-shelfwork: 001-008 M
!!!SMS-variant:
!!!SMS-altvar:
!!!NIFC-rismid: 1001139984
!!!URL-scan: http://repozytorium.nifc.pl/skany/pl-kk-nut--i-473
!!!ONB-nifc: UWAGA: części Mszy: 1. Kyrie, 2. Gloria, 3. Patrem, 4. Sanctus, 5. Benedictus, 6. Osanna, 7. Agnus, 8. Dona
**kern	**fba	**kern	**kern	**kern	**dynam	**kern	**dynam	**kern	**text	**kern	**text	**dynam	**kern	**text	**dynam	**kern	**text	**kern	**kern	**kern	**kern
*part13	*part13	*part12	*part11	*part10	*part10	*part9	*part9	*part8	*part8	*part7	*part7	*part7	*part6	*part6	*part6	*part5	*part5	*part4	*part3	*part2	*part1
*staff13	*staff13	*staff12	*staff11	*staff10	*	*staff9	*	*staff8	*staff8	*staff7	*staff7	*	*staff6	*staff6	*	*staff5	*staff5	*staff4	*staff3	*staff2	*staff1
*I"Organo.	*	*I"Alto Viola II.do w Tromb:	*I"Alto Viola I.ma vel Tromb.	*I"Violino 2do	*	*I"Violino Primo	*	*I"Baſso	*	*I"Tenore	*	*	*I"Alto Conc: to	*	*	*I"Canto Concto	*	*I"Clarino 2:do Ex D.	*I"Clarino Primo in D.	*I"Oboe Secundo.	*I"Oboe Primo
*I'org.	*	*I'vla 2	*I'vla 1	*I'vl 2	*	*I'vl 1	*	*I'B	*	*I'T	*	*	*I'A	*	*	*I'S	*	*I'clno 2	*I'clno 1	*I'ob 2	*I'ob 1
*clefF4	*	*clefC3	*clefC3	*clefG2	*	*clefG2	*	*clefF4	*	*clefC4	*	*	*clefC3	*	*	*clefC1	*	*clefG2	*clefG2	*clefG2	*clefG2
*	*	*	*	*	*	*	*	*	*	*	*	*	*	*	*	*	*	*ITrd-1c-2	*ITrd-1c-2	*	*
*k[f#c#]	*	*k[f#c#]	*k[f#c#]	*k[f#c#]	*	*k[f#c#]	*	*k[f#c#]	*	*k[f#c#]	*	*	*k[f#c#]	*	*	*k[f#c#]	*	*k[f#c#]	*k[f#c#]	*k[f#c#]	*k[f#c#]
*M2/4	*	*M2/4	*M2/4	*M2/4	*	*M2/4	*	*M2/4	*	*M2/4	*	*	*M2/4	*	*	*M2/4	*	*M2/4	*M2/4	*M2/4	*M2/4
*	*	*	*	*	*	*	*below	*	*	*	*	*	*	*	*	*	*	*	*	*	*
=1	=1	=1	=1	=1	=1	=1	=1	=1	=1	=1	=1	=1	=1	=1	=1	=1	=1	=1	=1	=1	=1
*	*	*2\right	*	*	*	*	*	*	*	*	*	*	*	*	*	*	*	*	*2\right	*	*
!	!	!	!	!	!	!	!	!	!	!	!	!	!	!	!	!	!	!	!	!	!LO:TX:t=P:problem:p = "p:":global
!	!	!	!	!	!	!	!	!	!	!	!	!	!	!	!	!	!	!	!LO:TX:rj:b:t=Dona	!	!LO:TX:t=P:problem:f = "for":global
!LO:TX:a:t=allo&colon;	!	!LO:TX:rj:b:t=Dona	!LO:TX:a:t=allo&colon;	!LO:TX:a:t=allo	!	!LO:TX:a:t=allo	!	!	!	!	!	!	!	!	!	!	!	!LO:TX:a:t=allo	!LO:TX:a:t=allo	!LO:TX:rj:b:t=Dona	!LO:TX:a:t=allo
!LO:TX:rj:b:t=Dona	!	!LO:TX:a:t=allo	!LO:TX:rj:b:t=Dona	!LO:TX:rj:b:t=Dona	!	!LO:TX:rj:b:t=Dona	!	!	!	!LO:TX:a:t=allo.	!	!	!LO:TX:a:t=allo.	!	!	!	!	!LO:TX:rj:b:t=Dona	!	!LO:TX:a:t=allo	!LO:TX:rj:b:t=Dona
8D\L	.	2d\	4f#\	8f#/L	.	4.dd\	.	8D\L	Do-	4A\	Do-	.	4f#\	Do-	.	4.dd\	Do-	2f#/	2dd\	2a/	4.dd\
8E\	.	.	.	8g/	.	.	.	8E\J	.	.	.	.	.	.	.	.	.	.	.	.	.
8F#\	.	.	4a\	8a/	.	.	.	8F#\L	-na	4A\	-na	.	4a\	-na	.	.	.	.	.	.	.
!LO:TX:a:t=T	!	!	!	!	!	!	!	!	!	!	!	!	!	!	!	!	!	!	!	!	!
8D\J	.	.	.	8f#/J	.	16cc#\LL	.	8D\J	.	.	.	.	.	.	.	16cc#\LL	-na	.	.	.	16cc#\LL
.	.	.	.	.	.	16dd\JJ	.	.	.	.	.	.	.	.	.	16dd\JJ	.	.	.	.	16dd\JJ
=2	=2	=2	=2	=2	=2	=2	=2	=2	=2	=2	=2	=2	=2	=2	=2	=2	=2	=2	=2	=2	=2
8C#/L	6	2e\	4a\	8e/L	.	4.ee\	.	8C#/L	no-	4A\	no-	.	4a\	no-	.	4.ee\	no-	2a/	2ee\	4.cc#\	4.ee\
8BB/	.	.	.	8d/	.	.	.	8BB/J	.	.	.	.	.	.	.	.	.	.	.	.	.
8C#/	.	.	4a\	8e/	.	.	.	8C#/L	-bis	4e\	-bis	.	4a\	-bis	.	.	.	.	.	.	.
8AA/J	.	.	.	8c#/J	.	16ff#\LL	.	8AA/J	.	.	.	.	.	.	.	16ff#\LL	-bis	.	.	16dd\LL	16ff#\LL
.	.	.	.	.	.	16gg\JJ	.	.	.	.	.	.	.	.	.	16gg\JJ	.	.	.	16ee\JJ	16gg\JJ
=3	=3	=3	=3	=3	=3	=3	=3	=3	=3	=3	=3	=3	=3	=3	=3	=3	=3	=3	=3	=3	=3
*	*	*	*	*	*	*	*	*	*	*	*ij	*	*	*	*	*	*	*	*	*	*
8D\L	.	4f#\	8a\L	8A/L	.	8ff#\	.	8D\L	pa-	8e\	no-	.	8a\L	pa-	.	8ff#\	pa-	4dd\	4ff#\	8dd\	4ff#\
8B\	.	.	8f#\	8f#/J	.	4dd\	.	8B\	.	8f#\	-bis	.	8f#\	.	.	4dd\	.	.	.	4dd\	.
*	*	*	*	*	*	*	*	*	*	*	*Xij	*	*	*	*	*	*	*	*	*	*
8G\	6 5	4e\	8b\	4e/	.	.	.	8G\	.	4e\	pa-	.	8b\	.	.	.	.	4a/	4ee\	.	4ee\
8A\J	.	.	8a\J	.	.	8cc#\	.	8A\J	.	.	.	.	8a\J	.	.	8cc#\	.	.	.	8cc#\	.
=4	=4	=4	=4	=4	=4	=4	=4	=4	=4	=4	=4	=4	=4	=4	=4	=4	=4	=4	=4	=4	=4
4D/	.	4d\	4g\	4d/	.	4dd\	.	4D\	-cem	4d\	-cem	.	4a\	-cem	.	4dd\	-cem	4f#/	4dd\	4dd\	4dd\
4r	.	4r	4r	4r	.	4r	.	4r	.	4r	.	.	4r	.	.	4r	.	4r	4r	4r	4r
=5	=5	=5	=5	=5	=5	=5	=5	=5	=5	=5	=5	=5	=5	=5	=5	=5	=5	=5	=5	=5	=5
*	*	*	*	*	*	*	*	*	*	*	*	*	*	*	*	*2\right	*	*	*	*	*
!LO:N:vis=00	!	!LO:N:vis=00	!LO:N:vis=00	!	!	!	!	!LO:N:vis=00	!	!LO:N:vis=00	!	!	!LO:N:vis=00	!	!	!	!	!LO:N:vis=00	!LO:N:vis=00	!LO:N:vis=00	!LO:N:vis=00
0r	.	0r	0r	8d/L	.	8f#/L	.	0r	.	0r	.	.	0r	.	.	[2dd\	Do-	0r	0r	0r	0r
.	.	.	.	8f#/	p	8a/	.	.	.	.	.	.	.	.	.	.	.	.	.	.	.
.	.	.	.	8g/	.	8b/	.	.	.	.	.	.	.	.	.	.	.	.	.	.	.
.	.	.	.	8f#/J	.	8a/J	.	.	.	.	.	.	.	.	.	.	.	.	.	.	.
=6	=6	=6	=6	=6	=6	=6	=6	=6	=6	=6	=6	=6	=6	=6	=6	=6	=6	=6	=6	=6	=6
.	.	.	.	4e/	.	4g/	.	.	.	.	.	.	.	.	.	8dd\]	.	.	.	.	.
.	.	.	.	.	.	.	.	.	.	.	.	.	.	.	.	8cc#\	-na	.	.	.	.
.	.	.	.	4d/	.	8f#/L	.	.	.	.	.	.	.	.	.	8dd\	no-	.	.	.	.
.	.	.	.	.	.	8a/J	.	.	.	.	.	.	.	.	.	16ee\LL	-bis	.	.	.	.
.	.	.	.	.	.	.	.	.	.	.	.	.	.	.	.	16ff#\JJ	.	.	.	.	.
=7	=7	=7	=7	=7	=7	=7	=7	=7	=7	=7	=7	=7	=7	=7	=7	=7	=7	=7	=7	=7	=7
.	.	.	.	4c#/	.	8a/L	.	.	.	.	.	.	.	.	.	4.ee\	pa-	.	.	.	.
.	.	.	.	.	.	8A/J	.	.	.	.	.	.	.	.	.	.	.	.	.	.	.
.	.	.	.	4A/	.	8cc#\L	.	.	.	.	.	.	.	.	.	.	.	.	.	.	.
.	.	.	.	.	.	16dd\L	.	.	.	.	.	.	.	.	.	16ff#\LL	.	.	.	.	.
.	.	.	.	.	.	16ee\JJ	.	.	.	.	.	.	.	.	.	16gg\JJ	.	.	.	.	.
=8	=8	=8	=8	=8	=8	=8	=8	=8	=8	=8	=8	=8	=8	=8	=8	=8	=8	=8	=8	=8	=8
.	.	.	.	8d/L	.	8dd\L	.	.	.	.	.	.	.	.	.	8ff#\	.	.	.	.	.
.	.	.	.	8A/J	.	8cc#\J	.	.	.	.	.	.	.	.	.	8ee\	-cem	.	.	.	.
.	.	.	.	4r	.	4r	.	.	.	.	.	.	.	.	.	4r	.	.	.	.	.
!	!	!	!	!	!	!LO:LB:g=original	!	!	!	!	!	!	!	!	!	!LO:LB:g=original	!	!	!	!	!
=9	=9	=9	=9	=9	=9	=9	=9	=9	=9	=9	=9	=9	=9	=9	=9	=9	=9	=9	=9	=9	=9
*2\right	*	*	*2\right	*	*	*	*	*2\right	*	*	*	*	*2\right	*	*	*	*	*2\right	*	*2\right	*
2A\	.	2c#/	2e\	8c#/L	.	8ee\L	f	2A\	Do-	8c#\	do-	.	2e\	Do-	.	8ee\	Do-	2ee\	2aa\	2cc#\	8ee\L
.	.	.	.	8e/	f	8cc#\	.	.	.	8e\	-na	.	.	.	.	8cc#\	-na	.	.	.	8cc#\
.	.	.	.	8d/	.	8b\	.	.	.	8d\	no-	.	.	.	.	8b\	no-	.	.	.	8b\
.	.	.	.	8c#/J	.	8a\J	.	.	.	8c#\	-bis	.	.	.	.	8a\	-bis	.	.	.	8a\J
!!pagebreak:original
=10	=10	=10	=10	=10	=10	=10	=10	=10	=10	=10	=10	=10	=10	=10	=10	=10	=10	=10	=10	=10	=10
2E\	#	2B/	2e\	8B/L	.	8g#X/L	.	2E\	-na	8B\L	pa-	.	2e\	-na	.	8g#X\L	pa-	2ee\	2gg#X\	8b/L	8g#X/L
.	.	.	.	8A/J	.	8a/J	.	.	.	8A\J	.	.	.	.	.	8a\J	.	.	.	8a/J	8a/J
.	.	.	.	4G#X/	.	4b\	.	.	.	4G#X/	-cem	.	.	.	.	4b\	-cem	.	.	4g#X/	4b/
=11	=11	=11	=11	=11	=11	=11	=11	=11	=11	=11	=11	=11	=11	=11	=11	=11	=11	=11	=11	=11	=11
*	*	*	*	*	*	*	*	*	*	*	*	*	*	*	*	*	*	*	*	*	*2\right
!LO:N:vis=0	!	!LO:N:vis=0	!LO:N:vis=0	!	!LO:DY:t=p&colon;	!	!LO:DY:t=p&colon;	!LO:N:vis=0	!	!LO:N:vis=0	!	!	!	!	!	!	!	!LO:N:vis=0	!LO:N:vis=0	!LO:N:vis=0	!
1r	.	1r	1r	2e/	p	2e/	p	1r	.	1r	.	.	8e\	do-	.	8g#X\	do-	1r	1r	1r	[<2ee\
.	.	.	.	.	.	.	.	.	.	.	.	.	.	.	p	.	.	.	.	.	.
.	.	.	.	.	.	.	.	.	.	.	.	.	8g#X\	-na	.	8b\	-na	.	.	.	.
.	.	.	.	.	.	.	.	.	.	.	.	.	8a\	no-	.	8cc#\	no-	.	.	.	.
.	.	.	.	.	.	.	.	.	.	.	.	.	8b\	-bis	.	8dd\	-bis	.	.	.	.
=12	=12	=12	=12	=12	=12	=12	=12	=12	=12	=12	=12	=12	=12	=12	=12	=12	=12	=12	=12	=12	=12
.	.	.	.	2A/	.	2A/	.	.	.	.	.	.	4b\	pa-	.	4dd\	pa-	.	.	.	2ee\]
.	.	.	.	.	.	.	.	.	.	.	.	.	4a\	-cem	.	4cc#\	-cem	.	.	.	.
!	!	!	!	!LO:LB:g=original	!	!	!	!	!	!	!	!	!LO:LB:g=original	!	!	!	!	!	!	!	!
=13	=13	=13	=13	=13	=13	=13	=13	=13	=13	=13	=13	=13	=13	=13	=13	=13	=13	=13	=13	=13	=13
!	!	!	!	!	!LO:DY:t=f&colon;	!	!	!	!	!	!	!	!	!	!	!	!	!	!	!	!
2A\	.	2c#/	2e\	8c#/L	f	8ee\L	f	2A\	Do-	8c#\	do-	.	2e\	do-	.	8ee\	do-	2ee\	2aa\	2cc#\	8ee\L
.	.	.	.	8e/	.	8cc#\	.	.	.	8e\	-na	.	.	.	.	8cc#\	-na	.	.	.	8cc#\
.	.	.	.	8d/	.	8b\	.	.	.	8d\	no-	.	.	.	.	8b\	no-	.	.	.	8b\
.	.	.	.	8c#/J	.	8a\J	.	.	.	8c#\	-bis	.	.	.	.	8a\	-bis	.	.	.	8a\J
!	!	!	!	!	!	!	!	!	!	!LO:LB:g=original	!	!	!	!	!	!	!	!	!	!	!
=14	=14	=14	=14	=14	=14	=14	=14	=14	=14	=14	=14	=14	=14	=14	=14	=14	=14	=14	=14	=14	=14
2E\	#	2B/	2e\	8B/L	.	8g#X/L	.	2E\	-na	8B\L	pa-	.	2e\	-na	.	8g#X\L	pa-	2ee\	2gg#X\	8b/L	8g#X/L
.	.	.	.	8A/J	.	8a/J	.	.	.	8A\J	.	.	.	.	.	8a\J	.	.	.	8a/J	8a/J
.	.	.	.	4G#X/	.	4b\	.	.	.	4G#X/	-cem	.	.	.	.	4b\	-cem	.	.	4g#X/	4b/
!	!	!	!	!	!	!	!	!	!	!	!	!	!	!	!	!LO:LB:g=original	!	!	!	!	!LO:LB:g=original
=15	=15	=15	=15	=15	=15	=15	=15	=15	=15	=15	=15	=15	=15	=15	=15	=15	=15	=15	=15	=15	=15
!LO:N:vis=0	!	!LO:N:vis=0	!LO:N:vis=0	!	!LO:DY:t=p&colon;	!	!	!LO:N:vis=0	!	!LO:N:vis=0	!	!	!	!	!	!	!	!LO:N:vis=0	!LO:N:vis=0	!LO:N:vis=0	!
1r	.	1r	1r	2e/	p	2e/	p	1r	.	1r	.	.	8e\	do-	.	8g#X\	do-	1r	1r	1r	[<2ee\
!	!	!	!	!	!	!	!	!	!	!	!	!	!	!	!LO:DY:a:t=p.	!	!	!	!	!	!
.	.	.	.	.	.	.	.	.	.	.	.	.	8g#X\	-na	p	8b\	-na	.	.	.	.
.	.	.	.	.	.	.	.	.	.	.	.	.	8a\	no-	.	8cc#\	no-	.	.	.	.
.	.	.	.	.	.	.	.	.	.	.	.	.	8b\	-bis	.	8dd\	-bis	.	.	.	.
=16	=16	=16	=16	=16	=16	=16	=16	=16	=16	=16	=16	=16	=16	=16	=16	=16	=16	=16	=16	=16	=16
.	.	.	.	2A/	.	2A/	.	.	.	.	.	.	4b\	pa-	.	4dd\	pa-	.	.	.	2ee\]
.	.	.	.	.	.	.	.	.	.	.	.	.	4a\	-cem	.	4cc#\	-cem	.	.	.	.
!	!	!	!	!	!	!	!	!	!	!	!	!	!	!	!	!	!	!	!	!LO:LB:g=original	!
=17	=17	=17	=17	=17	=17	=17	=17	=17	=17	=17	=17	=17	=17	=17	=17	=17	=17	=17	=17	=17	=17
!	!	!	!	!	!	!LO:TX:t=P:problem:mixed beam	!	!	!	!	!	!	!	!	!	!	!	!	!	!	!
8A\L	5	4c#/	4a\	8cc#\L	f	16a/LL	f	4A\	do-	4c#\	do-	.	4a\	do-	.	4cc#\	do-	4ee\	4aa\	4cc#\	4aa\
.	.	.	.	.	.	16g#X/	.	.	.	.	.	.	.	.	.	.	.	.	.	.	.
8A\	_	.	.	8cc#\	.	16a/	.	.	.	.	.	.	.	.	.	.	.	.	.	.	.
.	.	.	.	.	.	16aa\JJ	.	.	.	.	.	.	.	.	.	.	.	.	.	.	.
!	!	!	!	!	!	!	!	!	!	!	!	!	!	!	!LO:DY:a	!	!	!	!	!	!LO:TX:t=P:problem:mixed beam
8G#X\	.	4B/	4a\	8b\	.	16aa\LL	.	4G#X\	-na	4B\	-na	.	4a\	-na	f	4ee\	-na	4ee\	4aa\	4b\	8a/L
.	.	.	.	.	.	16ee\	.	.	.	.	.	.	.	.	.	.	.	.	.	.	.
8G#\J	.	.	.	8b\J	.	16cc#\	.	.	.	.	.	.	.	.	.	.	.	.	.	.	8aa\J
.	.	.	.	.	.	16a\JJ	.	.	.	.	.	.	.	.	.	.	.	.	.	.	.
!!pagebreak:original
!	!	!	!	!	!	!	!	!LO:LB:g=original	!	!	!	!	!	!	!	!	!	!	!	!	!
=18	=18	=18	=18	=18	=18	=18	=18	=18	=18	=18	=18	=18	=18	=18	=18	=18	=18	=18	=18	=18	=18
!LO:TX:t=P:problem:mixed beam	!	!	!	!	!	!LO:TX:t=P:problem:mixed beam	!	!	!	!	!	!	!	!	!	!	!	!	!	!	!
8F#\L	n	4A/	4a\	8a/L	.	16a/LL	.	4F#\	no-	4A\	no-	.	4a\	no-	.	4a\	no-	4ff#\	4aa\	4a/	4aa\
.	.	.	.	.	.	16g#X/	.	.	.	.	.	.	.	.	.	.	.	.	.	.	.
8F#\	.	.	.	8a/	.	16a/	.	.	.	.	.	.	.	.	.	.	.	.	.	.	.
.	.	.	.	.	.	16aa\JJ	.	.	.	.	.	.	.	.	.	.	.	.	.	.	.
!	!	!	!	!	!	!	!	!	!	!	!	!	!	!	!	!	!	!	!	!	!LO:TX:t=P:problem:mixed beam
8C#/	6	4e\	4a\	8e/	.	16aa\LL	.	4C#/	-bis	4e\	-bis	.	4a\	-bis	.	4cc#\	-bis	8ff#\L	4aa\	4ee\	8a/L
.	.	.	.	.	.	16ee\	.	.	.	.	.	.	.	.	.	.	.	.	.	.	.
8C#/J	.	.	.	8e/J	.	16cc#\	.	.	.	.	.	.	.	.	.	.	.	8ee\J	.	.	8aa\J
.	.	.	.	.	.	16a\JJ	.	.	.	.	.	.	.	.	.	.	.	.	.	.	.
!LO:LB:g=original	!	!	!	!	!	!	!	!	!	!	!	!	!	!	!	!	!	!	!	!	!
=19	=19	=19	=19	=19	=19	=19	=19	=19	=19	=19	=19	=19	=19	=19	=19	=19	=19	=19	=19	=19	=19
4D\	6 5	4f#\	4a\	8.f#/L	.	16b\LL	.	4D\	pa-	4f#\	pa-	.	4a\	pa-	.	2b\	pa-	4ff#\	4aa\	8ff#\L	4aa\
.	.	.	.	.	.	16a\	.	.	.	.	.	.	.	.	.	.	.	.	.	.	.
.	.	.	.	.	.	16b\	.	.	.	.	.	.	.	.	.	.	.	.	.	8dd\J	.
.	.	.	.	16f#/Jk	.	16dd\JJ	.	.	.	.	.	.	.	.	.	.	.	.	.	.	.
!LO:TX:t=P:problem:mixed beam	!	!	!	!	!	!	!	!	!	!	!	!	!	!	!	!	!	!	!	!	!
8E/L	4	4e\	4g#X\	16e/LL	.	16cc#\LL	.	4E\	.	4e\	.	.	4g#X\	.	.	.	.	4ee\	4gg#X\	4b\	4gg#X\
.	.	.	.	16d/	.	16b\	.	.	.	.	.	.	.	.	.	.	.	.	.	.	.
8EE/J	#	.	.	16c#/	.	16a\	.	.	.	.	.	.	.	.	.	.	.	.	.	.	.
.	.	.	.	16B/JJ	.	16g#X\JJ	.	.	.	.	.	.	.	.	.	.	.	.	.	.	.
=20	=20	=20	=20	=20	=20	=20	=20	=20	=20	=20	=20	=20	=20	=20	=20	=20	=20	=20	=20	=20	=20
4AA/	.	4e\	4a\	4A/	.	4a/	.	4AA/	-cem	4e\	-cem	.	4a\	-cem	.	4a\	-cem	4ee\	4aa\	4a/	4aa\
4r	.	4r	4r	4r	.	4r	.	4r	.	4r	.	.	4r	.	.	4r	.	4r	4r	4r	4r
!	!	!LO:LB:g=original	!	!	!	!LO:LB:g=original	!	!	!	!	!	!	!	!	!	!	!	!	!	!	!
=21	=21	=21	=21	=21	=21	=21	=21	=21	=21	=21	=21	=21	=21	=21	=21	=21	=21	=21	=21	=21	=21
8D\L	.	2d\	4f#\	8f#/L	.	4.dd\	.	8D\L	do-	4A\	do-	.	4f#\	do-	.	4.dd\	do-	2f#/	2dd\	4f#/	4.dd\
8E\	.	.	.	8g/	.	.	.	8E\J	.	.	.	.	.	.	.	.	.	.	.	.	.
8F#\	6	.	4a\	8a/	.	.	.	8F#\L	-na	4A\	-na	.	4a\	-na	.	.	.	.	.	4a/	.
8D\J	.	.	.	8f#/J	.	16cc#\LL	.	8D\J	.	.	.	.	.	.	.	16cc#\LL	-na	.	.	.	16cc#\LL
.	.	.	.	.	.	16dd\JJ	.	.	.	.	.	.	.	.	.	16dd\JJ	.	.	.	.	16dd\JJ
=22	=22	=22	=22	=22	=22	=22	=22	=22	=22	=22	=22	=22	=22	=22	=22	=22	=22	=22	=22	=22	=22
.	.	.	.	.	.	.	.	.	.	.	.	.	.	.	.	.	.	.	.	8qqdd/	.
8C#/L	6	2e\	4a\	8e/L	.	4.ee\	.	8C#/L	no-	4A\	no-	.	4a\	no-	.	4.ee\	no-	2a/	2ee\	4.cc#\	4.ee\
8BB/	.	.	.	8d/	.	.	.	8BB/J	.	.	.	.	.	.	.	.	.	.	.	.	.
8C#/	.	.	4a\	8e/	.	.	.	8C#/L	-bis	4e\	-bis	.	4a\	-bis	.	.	.	.	.	.	.
8AA/J	.	.	.	8c#/J	.	16ff#\LL	.	8AA/J	.	.	.	.	.	.	.	16ff#\LL	-bis	.	.	16dd\LL	16ff#\LL
.	.	.	.	.	.	16gg\JJ	.	.	.	.	.	.	.	.	.	16gg\JJ	.	.	.	16ee\JJ	16gg\JJ
!	!	!	!LO:LB:g=original	!	!	!	!	!	!	!	!	!	!LO:LB:g=original	!	!	!	!	!	!LO:LB:g=original	!	!
=23	=23	=23	=23	=23	=23	=23	=23	=23	=23	=23	=23	=23	=23	=23	=23	=23	=23	=23	=23	=23	=23
*	*	*	*	*	*	*	*	*	*	*	*ij	*	*	*	*	*	*	*	*	*	*
8D\L	.	4f#\	8a\L	8A/L	.	8ff#\	.	8D\L	pa-	8d\	no-	.	8a\L	pa-	.	8ff#\	pa-	4dd\	4ff#\	8dd\	4ff#\
8B\	.	.	8f#\	8f#/J	.	4dd\	.	8B\	.	8f#\	-bis	.	8f#\	.	.	4dd\	.	.	.	4dd\	.
*	*	*	*	*	*	*	*	*	*	*	*Xij	*	*	*	*	*	*	*	*	*	*
8G\	6 5	4e\	8b\	4e/	.	.	.	8G\	.	4e\	pa-	.	8b\	.	.	.	.	4a/	4ee\	.	4eeT\
8A\J	.	.	8a\J	.	.	8cc#\	.	8A\J	.	.	.	.	8a\J	.	.	8cc#\	.	.	.	8cc#\	.
!	!	!	!	!	!	!	!	!	!	!	!	!	!	!	!	!LO:LB:g=original	!	!LO:LB:g=original	!	!	!
=24	=24	=24	=24	=24	=24	=24	=24	=24	=24	=24	=24	=24	=24	=24	=24	=24	=24	=24	=24	=24	=24
4D\	.	4d\	4g\	4d/	.	4dd\	.	4D\	-cem	4d\	-cem	.	4a\	-cem	.	4dd\	-cem	4f#/	4dd\	4dd\	4dd\
4r	.	4r	4r	4r	.	4r	.	4r	.	4r	.	.	4r	.	.	4r	.	4r	4r	4r	4r
!	!	!	!	!LO:LB:g=original	!	!	!	!	!	!	!	!	!	!	!	!	!	!	!	!	!
=25	=25	=25	=25	=25	=25	=25	=25	=25	=25	=25	=25	=25	=25	=25	=25	=25	=25	=25	=25	=25	=25
!LO:N:vis=0	!	!LO:N:vis=0	!LO:N:vis=0	!	!LO:DY:rj:t=p&colon;	!	!LO:DY:rj:t=po	!LO:N:vis=0	!	!LO:N:vis=0	!	!	!	!	!	!	!LO:N:vis=0	!LO:N:vis=0	!LO:N:vis=0	!	!
1r	.	1r	1r	2d/	p	2d/	p	1r	.	1r	.	.	8d\	do-	.	8f#/	do-	1r	1r	1r	[2dd\
.	.	.	.	.	.	.	.	.	.	.	.	.	8f#\	-na	.	8a\	-na	.	.	.	.
.	.	.	.	.	.	.	.	.	.	.	.	.	8g\	no-	.	8b\	no-	.	.	.	.
.	.	.	.	.	.	.	.	.	.	.	.	.	8a\	-bis	.	8ccn\	-bis	.	.	.	.
=26	=26	=26	=26	=26	=26	=26	=26	=26	=26	=26	=26	=26	=26	=26	=26	=26	=26	=26	=26	=26	=26
!	!	!	!	!	!	!	!	!	!	!	!	!	!	!	!	!LO:SIC:v:s=ccn	!	!	!	!	!
.	.	.	.	2G/	.	2G/	.	.	.	.	.	.	4a\	pa-	.	4cc#\	pa-	.	.	.	2dd\]
.	.	.	.	.	.	.	.	.	.	.	.	.	4g\	-cem	.	4b\	-cem	.	.	.	.
=27	=27	=27	=27	=27	=27	=27	=27	=27	=27	=27	=27	=27	=27	=27	=27	=27	=27	=27	=27	=27	=27
!	!	!	!	!	!LO:DY:rj:t=fo	!	!	!	!	!	!	!	!	!	!	!	!	!	!	!	!
4Cn/	6 5	8cn/	4e\	8cn/	f	8a/	f	4Cn/	pa-	8cn\	pa-	.	4e\	pa-	.	8a\	pa-	4d/	4d/	8ccn\	8aa\
.	.	4B/	.	4B/	.	4g/	.	.	.	4B\	.	.	.	.	.	4g\	.	.	.	4b\	4gg\
4D\	n7	.	4d\	.	.	.	.	4D/	.	.	.	.	4d\	.	.	.	.	8.d/L	8.d/L	.	.
.	.	8A/	.	8A/	.	8f#/	.	.	.	8A\	.	.	.	.	.	8f#/	.	.	.	8a/	8ff#\
.	.	.	.	.	.	.	.	.	.	.	.	.	.	.	.	.	.	16d/Jk	16d/Jk	.	.
=28	=28	=28	=28	=28	=28	=28	=28	=28	=28	=28	=28	=28	=28	=28	=28	=28	=28	=28	=28	=28	=28
4GG/	.	4B/	4d\	4G/	.	4g/	.	4GG/	-cem	4G/	-cem	.	4d\	-cem	.	4g\	-cem	4d/	4d/	4g/	4gg\
4r	.	4r	4r	4r	.	4r	.	4r	.	4r	.	.	4r	.	.	4r	.	4r	4r	4r	4r
!	!	!	!	!	!	!	!	!	!	!LO:LB:g=original	!	!	!	!	!	!	!	!	!	!	!LO:LB:g=original
=29	=29	=29	=29	=29	=29	=29	=29	=29	=29	=29	=29	=29	=29	=29	=29	=29	=29	=29	=29	=29	=29
!LO:N:vis=0	!	!LO:N:vis=0	!LO:N:vis=0	!	!LO:DY:rj:t=p.	!	!LO:DY:rj:t=po	!LO:N:vis=0	!	!LO:N:vis=0	!	!	!	!	!	!	!	!LO:N:vis=0	!LO:N:vis=0	!LO:N:vis=0	!
1r	.	1r	1r	2e/	p	2e/	p	1r	.	1r	.	.	8e\	do-	.	8g#X/	do-	1r	1r	1r	[<2ee\
.	.	.	.	.	.	.	.	.	.	.	.	.	8g#X\	-na	.	8b\	-na	.	.	.	.
.	.	.	.	.	.	.	.	.	.	.	.	.	8a\	no-	.	8cc#X\	no-	.	.	.	.
.	.	.	.	.	.	.	.	.	.	.	.	.	8b\	-bis	.	8dd\	-bis	.	.	.	.
=30	=30	=30	=30	=30	=30	=30	=30	=30	=30	=30	=30	=30	=30	=30	=30	=30	=30	=30	=30	=30	=30
.	.	.	.	2A/	.	2A/	.	.	.	.	.	.	4b\	pa-	.	4dd\	pa-	.	.	.	2ee\]
.	.	.	.	.	.	.	.	.	.	.	.	.	4a\	-cem	.	4cc#\	-cem	.	.	.	.
!	!	!	!	!	!	!	!	!	!	!	!	!	!	!	!	!	!	!	!	!LO:LB:g=original	!
=31	=31	=31	=31	=31	=31	=31	=31	=31	=31	=31	=31	=31	=31	=31	=31	=31	=31	=31	=31	=31	=31
*	*	*	*	*	*	*	*	*	*	*	*ij	*	*	*	*	*	*	*	*	*	*
!	!	!	!	!	!LO:DY:rj:t=f.	!	!	!	!	!	!	!	!	!	!	!	!	!	!	!	!
4D\	6 5	8d\	4f#\	8d/	f	8b/	f	4D\	pa-	8d\	pa-	.	4f#\	pa-	.	8b\	pa-	4ff#\	8bb\	8dd\	8bb\
.	.	4c#X/	.	4c#X/	.	4a/	.	.	.	4c#\	.	.	.	.	.	4a\	.	.	4aa\	4cc#\	4aa\
4E\	7 #	.	4e\	.	.	.	.	4E\	.	.	.	.	4e\	.	.	.	.	4ee\	.	.	.
.	.	8B/	.	8B/	.	8g#X/	.	.	.	8B\	.	.	.	.	.	8g#X\	.	.	8gg#X\	8b\	8gg#X\
!	!	!	!	!	!	!	!	!	!	!	!	!	!	!	!	!LO:LB:g=original	!	!	!	!	!
=32	=32	=32	=32	=32	=32	=32	=32	=32	=32	=32	=32	=32	=32	=32	=32	=32	=32	=32	=32	=32	=32
4AA/	.	4c#\	4e\	4A/	.	4a/	.	4AA/	-cem	4A\	-cem	.	4e\	-cem	.	4a\	-cem	4ee\	4aa\	4a/	4aa\
4r	.	4r	4r	4r	.	4r	.	4r	.	4r	.	.	4r	.	.	4r	.	4r	4r	4r	4r
!	!	!	!	!	!	!	!	!	!	!	!	!	!LO:LB:g=original	!	!	!	!	!	!	!	!
=33	=33	=33	=33	=33	=33	=33	=33	=33	=33	=33	=33	=33	=33	=33	=33	=33	=33	=33	=33	=33	=33
!LO:N:vis=0	!	!LO:N:vis=0	!LO:N:vis=0	!	!LO:DY:rj:t=p.	!	!LO:DY:rj:t=po	!LO:N:vis=0	!	!	!	!	!	!	!	!	!	!LO:N:vis=0	!LO:N:vis=0	!LO:N:vis=0	!
1r	.	1r	1r	2f#/	p	2f#/	p	1r	.	2r	.	.	8f#\	do-	.	8a#X\	do-	1r	1r	1r	[<2ff#\
.	.	.	.	.	.	.	.	.	.	.	.	.	8a#X\	-na	.	8cc#\	-na	.	.	.	.
.	.	.	.	.	.	.	.	.	.	.	.	.	8b\	no-	.	8dd\	no-	.	.	.	.
.	.	.	.	.	.	.	.	.	.	.	.	.	8cc#\	-bis	.	8ee\	-bis	.	.	.	.
=34	=34	=34	=34	=34	=34	=34	=34	=34	=34	=34	=34	=34	=34	=34	=34	=34	=34	=34	=34	=34	=34
.	.	.	.	2B/	.	2B/	.	.	.	2r	.	.	4cc#\	pa-	.	4ee\	pa-	.	.	.	2ff#\]
.	.	.	.	.	.	.	.	.	.	.	.	.	4b\	-cem	.	4dd\	-cem	.	.	.	.
=35	=35	=35	=35	=35	=35	=35	=35	=35	=35	=35	=35	=35	=35	=35	=35	=35	=35	=35	=35	=35	=35
!	!	!	!	!	!LO:DY:t=f	!	!LO:DY:t=f&colon;	!	!	!	!	!	!	!	!	!	!	!	!	!	!
4E\	6 5	8d\	4g\	8e/	f	8cc#\	f	4E\	pa-	8e\	pa-	.	4g\	pa-	.	8cc#\	pa-	4f#/	4f#/	8cc#\	8ee\
.	.	4d\	.	4d/	.	4b\	.	.	.	4d\	.	.	.	.	.	4b\	.	.	.	4b/	4dd\
4F#\	#	.	4f#\	.	.	.	.	4F#\	.	.	.	.	4f#\	.	.	.	.	8.f#/L	8.f#/L	.	.
.	.	8c#\	.	8c#/	.	8a#X/	.	.	.	8c#\	.	.	.	.	.	8a#X\	.	.	.	8a#X/	8cc#\
.	.	.	.	.	.	.	.	.	.	.	.	.	.	.	.	.	.	16f#/Jk	16f#/Jk	.	.
!LO:LB:g=original	!	!	!	!	!	!	!	!	!	!	!	!	!	!	!	!	!	!	!	!	!
=36	=36	=36	=36	=36	=36	=36	=36	=36	=36	=36	=36	=36	=36	=36	=36	=36	=36	=36	=36	=36	=36
!LO:TX:t=P:problem:mixed beam	!	!	!	!	!	!	!	!	!	!	!	!	!	!	!	!	!	!	!	!	!
8BB/L	.	4d\	4f#\	4B/	.	4b\	.	8BB/	-cem	4B\	-cem	.	4f#\	-cem	.	4b\	-cem	4f#/	4f#/	4b/	4b\
*	*	*	*	*	*	*	*	*	*	*	*Xij	*	*	*	*	*	*	*	*	*	*
!	!	!	!	!	!	!	!	!LO:LB:g=original	!	!	!	!	!	!	!	!	!	!	!	!	!
8B\	.	.	.	.	.	.	.	8B\L	do-	.	.	.	.	.	.	.	.	.	.	.	.
8d\	.	4f#\	4r	[4ff#\	.	4r	.	8d\J	.	8f#\	do-	.	4r	.	.	[4ff#\	pa-	4r	4r	[4ff#\	4r
8B\J	.	.	.	.	.	.	.	8B\	-na	8d\	-na	.	.	.	.	.	.	.	.	.	.
!!pagebreak:original
!	!	!	!	!	!	!LO:LB:g=original	!	!	!	!	!	!	!	!	!	!	!	!	!	!	!
=37	=37	=37	=37	=37	=37	=37	=37	=37	=37	=37	=37	=37	=37	=37	=37	=37	=37	=37	=37	=37	=37
!	!	!	!	!	!	!	!	!	!	!	!	!	!	!	!	!	!	!LO:N:vis=00	!LO:N:vis=0	!	!
8e\L	9	4B/	2g\	4ff#\]	.	16gg\LL	.	8e\L	pa-	4B\	pa-	.	2a\	pa-	.	4ff#\]	.	0r	1r	4ff#\]	2gg\
.	.	.	.	.	.	16ff#\J	.	.	.	.	.	.	.	.	.	.	.	.	.	.	.
8d\	.	.	.	.	.	8gg\J	.	8d\	.	.	.	.	.	.	.	.	.	.	.	.	.
8c#\	6	4e\	.	[4ee\	.	16gg\LL	.	8c#\	.	8e\L	.	.	.	.	.	[4ee\	.	.	.	[4ee\	.
.	.	.	.	.	.	16ee\	.	.	.	.	.	.	.	.	.	.	.	.	.	.	.
8A\J	.	.	.	.	.	16aa\	.	8A\J	.	8c#\J	.	.	.	.	.	.	.	.	.	.	.
.	.	.	.	.	.	16gg\JJ	.	.	.	.	.	.	.	.	.	.	.	.	.	.	.
!	!	!LO:LB:g=original	!	!LO:LB:g=original	!	!	!	!	!	!	!	!	!	!	!	!	!	!	!	!	!
=38	=38	=38	=38	=38	=38	=38	=38	=38	=38	=38	=38	=38	=38	=38	=38	=38	=38	=38	=38	=38	=38
8d\L	9	4A/	2f#\	4ee\]	.	16ff#\LL	.	8d\L	.	4A\	.	.	2f#\	.	.	4ee\]	.	.	.	4ee\]	2ff#\
.	.	.	.	.	.	16ee\J	.	.	.	.	.	.	.	.	.	.	.	.	.	.	.
8c#\	.	.	.	.	.	8ff#\J	.	8c#\	.	.	.	.	.	.	.	.	.	.	.	.	.
8B\	6	4d\	.	[4dd\	.	16ff#\LL	.	8B\	.	8d\L	.	.	.	.	.	[4dd\	.	.	.	[4dd\	.
.	.	.	.	.	.	16dd\	.	.	.	.	.	.	.	.	.	.	.	.	.	.	.
8G\J	.	.	.	.	.	16gg\	.	8G\J	.	8B\J	.	.	.	.	.	.	.	.	.	.	.
.	.	.	.	.	.	16ff#\JJ	.	.	.	.	.	.	.	.	.	.	.	.	.	.	.
=39	=39	=39	=39	=39	=39	=39	=39	=39	=39	=39	=39	=39	=39	=39	=39	=39	=39	=39	=39	=39	=39
8c#\L	9	4r	2d\	4dd\]	.	16ee\LL	.	8c#\L	.	4G/	.	.	2e\	.	.	4dd\]	.	.	2r	4dd\]	2ee\
.	.	.	.	.	.	16dd\J	.	.	.	.	.	.	.	.	.	.	.	.	.	.	.
8B\	.	.	.	.	.	8ee\J	.	8B\	.	.	.	.	.	.	.	.	.	.	.	.	.
8A#X\	6	8c#/L	.	[4cc#\	.	16ee\LL	.	8A#X\	.	8c#\L	.	.	.	.	.	[4cc#\	.	.	.	[4cc#\	.
.	.	.	.	.	.	16cc#\	.	.	.	.	.	.	.	.	.	.	.	.	.	.	.
8F#\J	.	8A#X/J	.	.	.	16ff#\	.	8F#\J	.	8A#X\J	.	.	.	.	.	.	.	.	.	.	.
.	.	.	.	.	.	16ee\JJ	.	.	.	.	.	.	.	.	.	.	.	.	.	.	.
=40	=40	=40	=40	=40	=40	=40	=40	=40	=40	=40	=40	=40	=40	=40	=40	=40	=40	=40	=40	=40	=40
!LO:SIC:o:s:v=zbędne t. 40-41 w clarino secundo	!	!LO:SIC:o:s:v=zbędne t. 40-41 w clarino secundo	!LO:SIC:o:s:v=zbędne t. 40-41 w clarino secundo	!LO:SIC:o:s:v=zbędne t. 40-41 w clarino secundo	!	!LO:SIC:o:s:v=zbędne t. 40-41 w clarino secundo	!	!LO:SIC:o:s:v=zbędne t. 40-41 w clarino secundo	!	!LO:SIC:o:s:v=zbędne t. 40-41 w clarino secundo	!	!	!LO:SIC:o:s:v=zbędne t. 40-41 w clarino secundo	!	!	!LO:SIC:o:s:v=zbędne t. 40-41 w clarino secundo	!	!LO:TX:t=P:problem:zbędne t. 40-41	!LO:SIC:o:s:v=zbędne t. 40-41 w clarino secundo	!LO:SIC:o:s:v=zbędne t. 40-41 w clarino secundo	!LO:SIC:o:s:v=zbędne t. 40-41 w clarino secundo
2ryy	.	2ryy	2ryy	2ryy	.	2ryy	.	2ryy	.	2ryy	.	.	2ryy	.	.	2ryy	.	.	2ryy	2ryy	2ryy
=41	=41	=41	=41	=41	=41	=41	=41	=41	=41	=41	=41	=41	=41	=41	=41	=41	=41	=41	=41	=41	=41
2ryy	.	2ryy	2ryy	2ryy	.	2ryy	.	2ryy	.	2ryy	.	.	2ryy	.	.	2ryy	.	2r	2ryy	2ryy	2ryy
=42	=42	=42	=42	=42	=42	=42	=42	=42	=42	=42	=42	=42	=42	=42	=42	=42	=42	=42	=42	=42	=42
*	*	*	*	*	*	*2\right	*	*	*	*	*	*	*	*	*	*	*	*	*	*	*
!LO:TX:t=P:problem:mixed beam	!	!	!	!	!	!	!	!LO:TX:t=P:problem:mixed beam	!	!	!	!	!	!	!	!	!	!	!	!	!
8B\L	9	4.d\	4d\	4cc#\]	.	2dd\	.	8B\L	.	4F#/	.	.	4d\	-cem	.	4cc#\]	.	4f#/	4f#/	4cc#\]	2dd\
8BB/	.	.	.	.	.	.	.	8BB/	.	.	.	.	.	.	.	.	.	.	.	.	.
8D/	6	.	8f#\L	4b\	.	.	.	8D/	.	8d\L	.	.	8f#\L	pa-	.	4b\	.	8.f#/L	8.f#/L	4b\	.
8E/J	.	8c#\	8g\J	.	.	.	.	8E/J	.	8c#\J	.	.	8g\J	.	.	.	.	.	.	.	.
.	.	.	.	.	.	.	.	.	.	.	.	.	.	.	.	.	.	16f#/Jk	16f#/Jk	.	.
=43	=43	=43	=43	=43	=43	=43	=43	=43	=43	=43	=43	=43	=43	=43	=43	=43	=43	=43	=43	=43	=43
4F#\	#	4B/	4f#\	4a#X/	.	4cc#\	.	4F#\	-cem	4c#\	-cem	.	4f#\	-cem	.	4a#X\	-cem	4f#/	4f#/	4a#X/	4cc#\
!	!	!	!	!	!	!	!	!	!	!	!	!	!LO:SIC:custos b:v	!	!	!	!	!	!	!	!
4r	.	4r	4r	4r	.	4r	.	4r	.	4r	.	.	4r	.	.	4r	.	4r	4r	4r	4r
!	!	!	!	!	!	!	!	!	!	!	!	!	!LO:PB:g=original	!	!	!LO:PB:g=original	!	!	!	!	!
=44	=44	=44	=44	=44	=44	=44	=44	=44	=44	=44	=44	=44	=44	=44	=44	=44	=44	=44	=44	=44	=44
8B\L	n	4d\	4b\	8dd\L	.	16b\LL	.	4B\	do-	4d\	do-	.	4b\	do-	.	4dd\	do-	4f#/	4f#/	4dd\	4bb\
.	.	.	.	.	.	16a#X\	.	.	.	.	.	.	.	.	.	.	.	.	.	.	.
8B\	.	.	.	8dd\	.	16b\	.	.	.	.	.	.	.	.	.	.	.	.	.	.	.
.	.	.	.	.	.	16bb\JJ	.	.	.	.	.	.	.	.	.	.	.	.	.	.	.
!	!	!	!	!	!	!	!	!	!	!	!	!	!	!	!	!	!	!	!	!	!LO:TX:t=P:problem:mixed beam
8An\	_	4c#\	4b\	8cc#\	.	16bb\LL	.	4An\	-na	4c#\	-na	.	4b\	-na	.	4ff#\	-na	4r	4r	4cc#\	8b/L
.	.	.	.	.	.	16ff#\	.	.	.	.	.	.	.	.	.	.	.	.	.	.	.
8A\J	.	.	.	8cc#\J	.	16dd\	.	.	.	.	.	.	.	.	.	.	.	.	.	.	8bb\J
.	.	.	.	.	.	16b\JJ	.	.	.	.	.	.	.	.	.	.	.	.	.	.	.
!	!	!	!	!	!	!	!	!	!	!LO:LB:g=original	!	!	!	!	!	!	!	!	!	!	!LO:LB:g=original
=45	=45	=45	=45	=45	=45	=45	=45	=45	=45	=45	=45	=45	=45	=45	=45	=45	=45	=45	=45	=45	=45
8G\L	x	4B/	4b\	8b/L	.	16b\LL	.	4G\	no-	4B\	no-	.	4b\	no-	.	4b\	no-	4f#/	4f#/	4b\	4bb\
.	.	.	.	.	.	16a#X\	.	.	.	.	.	.	.	.	.	.	.	.	.	.	.
8G\	.	.	.	8b/	.	16b\	.	.	.	.	.	.	.	.	.	.	.	.	.	.	.
.	.	.	.	.	.	16bb\JJ	.	.	.	.	.	.	.	.	.	.	.	.	.	.	.
!	!	!	!	!	!	!	!	!	!	!	!	!	!	!	!	!	!	!	!	!	!LO:TX:t=P:problem:mixed beam
8D\	6	4f#\	4b\	8f#/	.	16bb\LL	.	4D\	-bis	4f#\	-bis	.	4b\	-bis	.	4dd\	-bis	4r	4r	4ff#\	8b/L
.	.	.	.	.	.	16ff#\	.	.	.	.	.	.	.	.	.	.	.	.	.	.	.
8D\J	.	.	.	8f#/J	.	16dd\	.	.	.	.	.	.	.	.	.	.	.	.	.	.	8bb\J
.	.	.	.	.	.	16b\JJ	.	.	.	.	.	.	.	.	.	.	.	.	.	.	.
!!pagebreak:original
!	!	!	!	!	!	!	!	!	!	!	!	!	!	!	!	!	!	!	!	!LO:LB:g=original	!
=46	=46	=46	=46	=46	=46	=46	=46	=46	=46	=46	=46	=46	=46	=46	=46	=46	=46	=46	=46	=46	=46
4E\	6 5	4g\	4b\	8.g/L	.	16cc#\LL	.	4E\	pa-	4g\	pa-	.	4b\	pa-	.	2cc#\	pa-	4f#/	4f#/	8gg\L	4bb\
.	.	.	.	.	.	16b\	.	.	.	.	.	.	.	.	.	.	.	.	.	.	.
.	.	.	.	.	.	16cc#\	.	.	.	.	.	.	.	.	.	.	.	.	.	8ee\J	.
.	.	.	.	16g/Jk	.	16ee\JJ	.	.	.	.	.	.	.	.	.	.	.	.	.	.	.
.	.	.	.	.	.	.	.	.	.	.	.	.	.	.	.	.	.	.	.	8qqdd/	.
4F#\	#	4f#\	4a#X\	16f#/LL	.	16dd\LL	.	4F#\	.	4f#\	.	.	4a#X\	.	.	.	.	8.f#/L	8.f#/L	4cc#\	4aa#X\
.	.	.	.	16e/	.	16cc#\	.	.	.	.	.	.	.	.	.	.	.	.	.	.	.
.	.	.	.	16d/	.	16b\	.	.	.	.	.	.	.	.	.	.	.	.	.	.	.
.	.	.	.	16c#/JJ	.	16a#X\JJ	.	.	.	.	.	.	.	.	.	.	.	16f#/Jk	16f#/Jk	.	.
!	!	!	!LO:LB:g=original	!	!	!	!	!	!	!	!	!	!	!	!	!	!	!	!	!	!
=47	=47	=47	=47	=47	=47	=47	=47	=47	=47	=47	=47	=47	=47	=47	=47	=47	=47	=47	=47	=47	=47
4BB/	.	4f#\	4b\	4B/	.	4b\	.	4BB/	-cem	4f#\	-cem	.	4b\	-cem	.	4b\	-cem	4f#/	4f#/	4b\	4bb\
4r	.	4r	4r	4r	.	4r	.	4r	.	4r	.	.	4r	.	.	4r	.	4r	4r	4r	4r
!	!	!	!	!	!	!LO:LB:g=original	!	!	!	!	!	!	!	!	!	!	!	!LO:LB:g=original	!LO:LB:g=original	!	!
=48	=48	=48	=48	=48	=48	=48	=48	=48	=48	=48	=48	=48	=48	=48	=48	=48	=48	=48	=48	=48	=48
8D\L	.	2d\	4f#\	8f#/L	.	4.dd\	.	8D\L	do-	4A/	do-	.	4f#\	do-	.	4.dd\	do-	2f#/	2dd\	4f#/	4.dd\
8E\	.	.	.	8g/	.	.	.	8E\J	.	.	.	.	.	.	.	.	.	.	.	.	.
8F#\	6	.	4a\	8a/	.	.	.	8F#\L	-na	4A/	-na	.	4a\	-na	.	.	.	.	.	4a/	.
8D\J	.	.	.	8f#/J	.	16cc#\LL	.	8D\J	.	.	.	.	.	.	.	16cc#\LL	-na	.	.	.	16cc#\LL
.	.	.	.	.	.	16dd\JJ	.	.	.	.	.	.	.	.	.	16dd\JJ	.	.	.	.	16dd\JJ
!LO:LB:g=original	!	!	!	!	!	!	!	!	!	!	!	!	!	!	!	!	!	!	!	!	!
=49	=49	=49	=49	=49	=49	=49	=49	=49	=49	=49	=49	=49	=49	=49	=49	=49	=49	=49	=49	=49	=49
8C#/L	6	2e\	4a\	8e/L	.	4.ee\	.	8C#/L	no-	4A/	no-	.	4a\	no-	.	4.ee\	no-	2a/	2ee\	4.cc#\	4.ee\
8BB/	.	.	.	8d/	.	.	.	8BB/J	.	.	.	.	.	.	.	.	.	.	.	.	.
8C#/	.	.	4a\	8e/	.	.	.	8C#/L	-bia	4e\	-bis	.	4a\	-bis	.	.	.	.	.	.	.
8AA/J	.	.	.	8c#/J	.	16ff#\LL	.	8AA/J	.	.	.	.	.	.	.	16ff#\LL	-bis	.	.	16dd\LL	16ff#\LL
.	.	.	.	.	.	16gg\JJ	.	.	.	.	.	.	.	.	.	16gg\JJ	.	.	.	16ee\JJ	16gg\JJ
!	!	!	!	!	!	!	!	!LO:LB:g=original	!	!	!	!	!	!	!	!	!	!	!	!	!
=50	=50	=50	=50	=50	=50	=50	=50	=50	=50	=50	=50	=50	=50	=50	=50	=50	=50	=50	=50	=50	=50
8D\L	.	4f#\	8a\L	8A/L	.	8ff#\	.	8D\L	pa-	8d\	no-	.	8a\L	pa-	.	8ff#\	pa-	4dd\	4ff#\	8dd\	4ff#\
8B\	.	.	8f#\	8f#/J	.	4dd\	.	8B\	.	8f#\	-bis	.	8f#\	.	.	4dd\	.	.	.	4dd\	.
8G\	6 5	4e\	8b\	4e/	.	.	.	8G\	.	4e\	pa-	.	8b\	.	.	.	.	4a/	4ee\	.	4ee\
8A\J	.	.	8a\J	.	.	8cc#\	.	8A\J	.	.	.	.	8a\J	.	.	8cc#\	.	.	.	8cc#\	.
=51	=51	=51	=51	=51	=51	=51	=51	=51	=51	=51	=51	=51	=51	=51	=51	=51	=51	=51	=51	=51	=51
4D/	.	4d\	4a\	4d/	.	4dd\	.	4D\	-cem	4d\	-cem	.	4a\	-cem	.	4dd\	-cem	4f#/	4dd\	4dd\	4dd\
4r	.	4r	4r	4r	.	4r	.	4r	.	4r	.	.	4r	.	.	4r	.	4r	4r	4r	4r
!	!	!	!	!LO:LB:g=original	!	!	!	!	!	!	!	!	!	!	!	!	!	!	!	!	!
=52	=52	=52	=52	=52	=52	=52	=52	=52	=52	=52	=52	=52	=52	=52	=52	=52	=52	=52	=52	=52	=52
!LO:N:vis=00	!	!LO:N:vis=00	!LO:N:vis=00	!	!	!	!	!LO:N:vis=00	!	!LO:N:vis=00	!	!	!LO:N:vis=00	!	!	!	!	!LO:N:vis=00	!LO:N:vis=00	!LO:N:vis=00	!LO:N:vis=00
0r	.	0r	0r	8d/L	.	8f#/L	p	0r	.	0r	.	.	0r	.	.	[2dd\	do-	0r	0r	0r	0r
!	!	!	!	!	!LO:DY:t=po	!	!	!	!	!	!	!	!	!	!	!	!	!	!	!	!
.	.	.	.	8f#/	p	8a/	.	.	.	.	.	.	.	.	.	.	.	.	.	.	.
.	.	.	.	8g/	.	8b/	.	.	.	.	.	.	.	.	.	.	.	.	.	.	.
.	.	.	.	8f#/J	.	8a/J	.	.	.	.	.	.	.	.	.	.	.	.	.	.	.
!	!	!	!	!	!	!	!	!	!	!	!	!	!	!	!	!LO:LB:g=original	!	!	!	!	!
=53	=53	=53	=53	=53	=53	=53	=53	=53	=53	=53	=53	=53	=53	=53	=53	=53	=53	=53	=53	=53	=53
.	.	.	.	4e/	.	4g/	.	.	.	.	.	.	.	.	.	8dd\]	.	.	.	.	.
.	.	.	.	.	.	.	.	.	.	.	.	.	.	.	.	8cc#,<\	-na	.	.	.	.
.	.	.	.	4d/	.	8f#/L	.	.	.	.	.	.	.	.	.	8dd\	no-	.	.	.	.
.	.	.	.	.	.	[8a/J	.	.	.	.	.	.	.	.	.	16ee\LL	-bis	.	.	.	.
.	.	.	.	.	.	.	.	.	.	.	.	.	.	.	.	16ff#\JJ	.	.	.	.	.
=54	=54	=54	=54	=54	=54	=54	=54	=54	=54	=54	=54	=54	=54	=54	=54	=54	=54	=54	=54	=54	=54
.	.	.	.	4c#/	.	8a/L]	.	.	.	.	.	.	.	.	.	4.ee\	pa-	.	.	.	.
.	.	.	.	.	.	8A/J	.	.	.	.	.	.	.	.	.	.	.	.	.	.	.
.	.	.	.	4A/	.	8cc#\L	.	.	.	.	.	.	.	.	.	.	.	.	.	.	.
.	.	.	.	.	.	16dd\L	.	.	.	.	.	.	.	.	.	16ff#\LL	.	.	.	.	.
.	.	.	.	.	.	16ee\JJ	.	.	.	.	.	.	.	.	.	16gg\JJ	.	.	.	.	.
=55	=55	=55	=55	=55	=55	=55	=55	=55	=55	=55	=55	=55	=55	=55	=55	=55	=55	=55	=55	=55	=55
.	.	.	.	8d/L	.	8dd\L	.	.	.	.	.	.	.	.	.	8ff#\	.	.	.	.	.
.	.	.	.	8A/J	.	8cc#\J	.	.	.	.	.	.	.	.	.	8ee\	-cem	.	.	.	.
.	.	.	.	4r	.	4r	.	.	.	.	.	.	.	.	.	4r	.	.	.	.	.
=56	=56	=56	=56	=56	=56	=56	=56	=56	=56	=56	=56	=56	=56	=56	=56	=56	=56	=56	=56	=56	=56
!	!	!	!	!	!LO:DY:t=fo&colon;	!	!	!	!	!	!	!	!	!	!	!	!	!	!	!	!
2d\	.	2d\	2f#\	8f#/L	f	8aa\L	f	2d\	do-	2A/	Do-	.	8f#\	do-	.	8aa\	do-	4ff#\	4aa\	2ff#\	8aa\L
.	.	.	.	8a/	.	8ff#\	.	.	.	.	.	.	8a\	-na	.	8ff#\	-na	.	.	.	8ff#\
.	.	.	.	8g/	.	8ee\	.	.	.	.	.	.	8g\	no-	.	8ee\	no-	8ee\L	8gg\L	.	8ee\
.	.	.	.	8f#/J	.	8dd\J	.	.	.	.	.	.	8f#\	-bis	.	8dd\	-bis	8dd\J	8ff#\J	.	8dd\J
!!pagebreak:original
=57	=57	=57	=57	=57	=57	=57	=57	=57	=57	=57	=57	=57	=57	=57	=57	=57	=57	=57	=57	=57	=57
2A\	.	2c#\	2e\	8e/L	.	8cc#\L	.	2A\	-na	2A/	-na	.	8e\L	pa-	.	8cc#\L	pa-	4a/	4ee\	8ee\L	8cc#\L
.	.	.	.	8d/J	.	8dd\J	.	.	.	.	.	.	8d\J	.	.	8dd\J	.	.	.	8dd\J	8dd\J
.	.	.	.	4c#/	.	4ee\	.	.	.	.	.	.	4c#\	-cem	.	4ee\	-cem	4r	4r	4cc#\	4ee\
=58	=58	=58	=58	=58	=58	=58	=58	=58	=58	=58	=58	=58	=58	=58	=58	=58	=58	=58	=58	=58	=58
!	!	!	!	!	!	!	!	!	!	!	!	!LO:DY:a:t=p&colon;	!	!	!	!	!	!	!	!	!
!LO:N:vis=0	!	!LO:N:vis=0	!LO:N:vis=0	!	!LO:DY:rj:t=p&colon;	!	!LO:DY:t=p&colon;	!LO:N:vis=0	!	!	!	!	!	!	!	!LO:N:vis=0	!LO:N:vis=0	!LO:N:vis=0	!LO:N:vis=0	!	!
1r	.	1r	1r	2A/	p	2A/	p	1r	.	8A\	do-	p	8c#\	do-	.	1r	.	1r	1r	1r	[2aa\
.	.	.	.	.	.	.	.	.	.	8c#\	-na	.	8e\	-na	.	.	.	.	.	.	.
.	.	.	.	.	.	.	.	.	.	8d\	no-	.	8f#\	no-	.	.	.	.	.	.	.
.	.	.	.	.	.	.	.	.	.	8e\	-bis	.	8g\	-bis	.	.	.	.	.	.	.
=59	=59	=59	=59	=59	=59	=59	=59	=59	=59	=59	=59	=59	=59	=59	=59	=59	=59	=59	=59	=59	=59
.	.	.	.	2d/	.	2d/	.	.	.	4f#\	pa-	.	4g\	pa-	.	.	.	.	.	.	2aa\]
.	.	.	.	.	.	.	.	.	.	4e\	-cem	.	4f#\	-cem	.	.	.	.	.	.	.
!	!	!LO:LB:g=original	!	!	!	!LO:LB:g=original	!	!	!	!	!	!	!	!	!	!	!	!	!	!	!
=60	=60	=60	=60	=60	=60	=60	=60	=60	=60	=60	=60	=60	=60	=60	=60	=60	=60	=60	=60	=60	=60
!	!	!	!	!	!LO:DY:t=f&colon;	!	!	!	!	!	!	!LO:DY:a	!	!	!	!	!	!	!	!	!
2D/	.	2d\	2f#\	8f#/L	f	8aa\L	f	2D/	do-	2A/	Do-	f	8f#\	do-	.	8aa\	do-	4ff#\	4aa\	2ff#\	8aa\L
.	.	.	.	8a/	.	8ff#\	.	.	.	.	.	.	8a\	-na	.	8ff#\	-na	.	.	.	8ff#\
.	.	.	.	8g/	.	8ee\	.	.	.	.	.	.	8g\	no-	.	8ee\	no-	8ee\L	8gg\L	.	8ee\
.	.	.	.	8f#/J	.	8dd\J	.	.	.	.	.	.	8f#\	-bis	.	8dd\	-bis	8dd\J	8ff#\J	.	8dd\J
=61	=61	=61	=61	=61	=61	=61	=61	=61	=61	=61	=61	=61	=61	=61	=61	=61	=61	=61	=61	=61	=61
2AA/	.	2c#\	2e\	8e/L	.	8cc#\L	.	2AA/	-na	2A/	-na	.	8e\L	pa-	.	8cc#\L	pa-	4a/	4ee\	8ee\L	8cc#\L
.	.	.	.	8d/J	.	8dd\J	.	.	.	.	.	.	8d\J	.	.	8dd\J	.	.	.	8dd\J	8dd\J
.	.	.	.	4c#/	.	4ee\	.	.	.	.	.	.	4c#\	-cem	.	4ee\	-cem	4r	4r	4cc#\	4ee\
!	!	!	!	!	!	!	!	!	!	!	!	!	!LO:LB:g=original	!	!	!	!	!	!	!LO:LB:g=original	!LO:LB:g=original
=62	=62	=62	=62	=62	=62	=62	=62	=62	=62	=62	=62	=62	=62	=62	=62	=62	=62	=62	=62	=62	=62
!	!	!	!	!	!	!	!	!	!	!	!	!LO:DY:a:t=p&colon;	!	!	!	!	!	!	!	!	!
!LO:N:vis=0	!	!LO:N:vis=0	!LO:N:vis=0	!	!LO:DY:rj:t=p&colon;	!	!LO:DY:t=p&colon;	!LO:N:vis=0	!	!	!	!	!	!	!	!LO:N:vis=0	!LO:N:vis=0	!LO:N:vis=0	!LO:N:vis=0	!	!
1r	.	1r	1r	2A/	p	2A/	p	1r	.	8A/	do-	p	8c#\	do-	.	1r	.	1r	1r	1r	[2aa\
.	.	.	.	.	.	.	.	.	.	8c#\	-na	.	8e\	-na	.	.	.	.	.	.	.
.	.	.	.	.	.	.	.	.	.	8d\	no-	.	8f#\	no-	.	.	.	.	.	.	.
.	.	.	.	.	.	.	.	.	.	8e\	-bis	.	8g\	-bis	.	.	.	.	.	.	.
=63	=63	=63	=63	=63	=63	=63	=63	=63	=63	=63	=63	=63	=63	=63	=63	=63	=63	=63	=63	=63	=63
.	.	.	.	2d/	.	2d/	.	.	.	4e\	pa-	.	4g\	pa-	.	.	.	.	.	.	2aa\]
.	.	.	.	.	.	.	.	.	.	4d\	-cem	.	4f#\	-cem	.	.	.	.	.	.	.
=64	=64	=64	=64	=64	=64	=64	=64	=64	=64	=64	=64	=64	=64	=64	=64	=64	=64	=64	=64	=64	=64
!	!	!	!	!	!LO:DY:t=fo	!	!	!	!	!	!	!LO:DY:a	!	!	!	!	!	!	!	!	!
8D\L	.	2d\	2a\	8dd\L	f	4r	.	8D\	do-	4r	.	f	4a\	do-	.	8dd\	do-	4ff#\	2aa\	4ff#\	4r
8D\	.	.	.	8ff#\J	.	.	.	8E\	-na	.	.	.	.	.	.	8dd\	-na	.	.	.	.
8F#\	6	.	.	[4aa\	.	8r	.	8F#\	no-	8A/	do-	.	4a\	-na	.	8a\	no-	4dd\	.	4aa\	4dd\
8D\J	.	.	.	.	.	8ff#\	f	8D\	-bis-	8F#/	-na	.	.	.	.	8dd\	-bis	.	.	.	.
!	!	!	!	!LO:LB:g=original	!	!	!	!	!	!	!	!	!	!	!	!	!	!	!	!	!
=65	=65	=65	=65	=65	=65	=65	=65	=65	=65	=65	=65	=65	=65	=65	=65	=65	=65	=65	=65	=65	=65
8G\L	9	4B/	4a\	4aa\]	.	2bb\	.	8G\L	-pa-	4B\	pa-	.	4a\	pa-	.	2b\	pa-	4dd\	2bb\	4aa\	2bb\
8F#\	.	.	.	.	.	.	.	8F#\	.	.	.	.	.	.	.	.	.	.	.	.	.
8E\	6	8g\L	[4g\	[4gg\	.	.	.	8E\	.	8g\L	.	.	[4g\	.	.	.	.	4r	.	[4gg\	.
8C#\J	.	8e\J	.	.	.	.	.	8C#\J	.	8e\J	.	.	.	.	.	.	.	.	.	.	.
=66	=66	=66	=66	=66	=66	=66	=66	=66	=66	=66	=66	=66	=66	=66	=66	=66	=66	=66	=66	=66	=66
8F#\L	9	4c#/	4g\]	4gg\]	.	2aa\	.	8F#\L	.	4c#\	.	.	4g\]	.	.	2a\	.	4ff#\	2aa\	4gg\]	2aa\
8E\	.	.	.	.	.	.	.	8E\	.	.	.	.	.	.	.	.	.	.	.	.	.
8D\	6	8f#\L	[4f#\	[4ff#\	.	.	.	8D\	.	8f#\L	.	.	[4f#\	.	.	.	.	4r	.	[4ff#\	.
8BB\J	.	8d\J	.	.	.	.	.	8BB\J	.	8d\J	.	.	.	.	.	.	.	.	.	.	.
=67	=67	=67	=67	=67	=67	=67	=67	=67	=67	=67	=67	=67	=67	=67	=67	=67	=67	=67	=67	=67	=67
8E\L	9	4B/	4f#\]	4ff#\]	.	2gg\	.	8E\L	.	4B\	.	.	4f#\]	.	.	2g/	.	4ee\	2gg\	4ff#\]	2gg\
8D\	.	.	.	.	.	.	.	8D\	.	.	.	.	.	.	.	.	.	.	.	.	.
8C#\	6	8e\L	[4e\	[4ee\	.	.	.	8C#\	.	8e\L	.	.	[4e\	.	.	.	.	4r	.	[4ee\	.
8AA\J	.	8c#\J	.	.	.	.	.	8AA\J	.	8c#\J	.	.	.	.	.	.	.	.	.	.	.
!!pagebreak:original
!LO:LB:g=original	!	!	!	!	!	!	!	!LO:LB:g=original	!	!	!	!	!	!	!	!	!	!	!	!	!
=68	=68	=68	=68	=68	=68	=68	=68	=68	=68	=68	=68	=68	=68	=68	=68	=68	=68	=68	=68	=68	=68
*	*	*	*	*	*	*	*	*	*	*2\right	*	*	*	*	*	*	*	*	*	*	*
4D\	.	2A/	4e\]	4ee\]	.	2ff#\	.	4D\	.	2A\	.	.	4e\]	.	.	2f#/	.	2dd\	2ff#\	4ee\]	2ff#\
8F#\L	6	.	4d\	4dd\	.	.	.	8F#\L	.	.	.	.	4d\	.	.	.	.	.	.	4dd\	.
8G\J	.	.	.	.	.	.	.	8G\J	.	.	.	.	.	.	.	.	.	.	.	.	.
=69	=69	=69	=69	=69	=69	=69	=69	=69	=69	=69	=69	=69	=69	=69	=69	=69	=69	=69	=69	=69	=69
4A\	.	4A/	4c#\	4cc#\	.	4ee\	.	4A\	-cem	4A\	-cem	.	4c#\	-cem	.	4e/	-cem	4a/	4ee\	4cc#\	4ee\
4r	.	4r	4r	4r	.	4r	.	4r	.	4r	.	.	4r	.	.	4r	.	4r	4r	4r	4r
!	!	!	!LO:LB:g=original	!	!	!	!	!	!	!LO:LB:g=original	!	!	!LO:LB:g=original	!	!	!LO:LB:g=original	!	!LO:LB:g=original	!	!	!
=70	=70	=70	=70	=70	=70	=70	=70	=70	=70	=70	=70	=70	=70	=70	=70	=70	=70	=70	=70	=70	=70
8d\L	5	4f#\	4f#\	8ff#\L	.	16dd\LL	.	4d\	do-	4f#\	do-	.	4f#\	do-	.	4dd\	do-	4dd\	4ff#\	4ff#\	4dd\
.	.	.	.	.	.	16cc#\	.	.	.	.	.	.	.	.	.	.	.	.	.	.	.
8d\	.	.	.	8ff#\	.	16dd\	.	.	.	.	.	.	.	.	.	.	.	.	.	.	.
.	.	.	.	.	.	16ddd\JJ	.	.	.	.	.	.	.	.	.	.	.	.	.	.	.
!	!	!	!	!	!	!	!	!	!	!	!	!	!	!	!	!	!	!	!	!	!LO:TX:t=P:problem:mixed beam
8c#\	_	4e\	4a\	8ee\	.	16ddd\LL	.	4c#\	-na	4e\	-na	.	4a\	-na	.	4dd\	-na	4a/	4ee\	4ee\	8d/L
.	.	.	.	.	.	16aa\	.	.	.	.	.	.	.	.	.	.	.	.	.	.	.
8c#\J	.	.	.	8ee\J	.	16ff#\	.	.	.	.	.	.	.	.	.	.	.	.	.	.	8dd\J
.	.	.	.	.	.	16dd\JJ	.	.	.	.	.	.	.	.	.	.	.	.	.	.	.
!	!	!	!	!	!	!	!	!	!	!	!	!	!	!	!	!	!	!	!LO:LB:g=original	!	!
=71	=71	=71	=71	=71	=71	=71	=71	=71	=71	=71	=71	=71	=71	=71	=71	=71	=71	=71	=71	=71	=71
!	!	!	!	!LO:TX:t=P:problem:mixed beam	!	!	!	!	!	!	!	!	!	!	!	!	!	!	!	!	!
8B\L	x	4d\	4d\	8dd\L	.	16dd\LL	.	4B\	no-	4d\	no-	.	4d\	no-	.	4dd\	no-	4dd\	4ff#\	4dd\	4dd\
.	.	.	.	.	.	16cc#\	.	.	.	.	.	.	.	.	.	.	.	.	.	.	.
8B\	.	.	.	8dd\	.	16dd\	.	.	.	.	.	.	.	.	.	.	.	.	.	.	.
.	.	.	.	.	.	16ddd\JJ	.	.	.	.	.	.	.	.	.	.	.	.	.	.	.
!	!	!	!	!	!	!	!	!	!	!	!	!	!	!	!	!	!	!	!	!	!LO:TX:t=P:problem:mixed beam
8F#\	6	4A/	4f#\	8a/	.	16ddd\LL	.	4F#\	-bis	4A\	-bis	.	4f#\	-bis	.	4dd\	-bis	4ff#\	4aa\	4a/	8d/L
.	.	.	.	.	.	16aa\	.	.	.	.	.	.	.	.	.	.	.	.	.	.	.
8F#\J	.	.	.	8a/J	.	16ff#\	.	.	.	.	.	.	.	.	.	.	.	.	.	.	8dd\J
.	.	.	.	.	.	16dd\JJ	.	.	.	.	.	.	.	.	.	.	.	.	.	.	.
!	!	!	!	!	!	!LO:LB:g=original	!	!	!	!	!	!	!	!	!	!	!	!	!	!	!
=72	=72	=72	=72	=72	=72	=72	=72	=72	=72	=72	=72	=72	=72	=72	=72	=72	=72	=72	=72	=72	=72
!LO:TX:t=P:problem:mixed beam	!	!	!	!	!	!	!	!	!	!	!	!	!	!	!	!	!	!	!	!	!
8G\L	6 5	4B/	2e\	8.b/L	.	16ee\LL	.	4G\	pa-	4B\	pa-	.	2e\	pa-	.	4dd\	pa-	4.ee\	4bb\	8b/L	4dd\
.	.	.	.	.	.	16dd\	.	.	.	.	.	.	.	.	.	.	.	.	.	.	.
8G\	.	.	.	.	.	16ee\	.	.	.	.	.	.	.	.	.	.	.	.	.	8g/J	.
.	.	.	.	16b/Jk	.	16gg\JJ	.	.	.	.	.	.	.	.	.	.	.	.	.	.	.
8A\	.	4A/	.	16a/LL	.	16ff#\LL	.	4A\	.	4A\	.	.	.	.	.	4cc#\	.	.	4aa\	4e/	4cc#\
.	.	.	.	16g/	.	16ee\	.	.	.	.	.	.	.	.	.	.	.	.	.	.	.
8AA/J	4	.	.	16f#/	.	16dd\	.	.	.	.	.	.	.	.	.	.	.	8ee\	.	.	.
.	3	.	.	16e/JJ	.	16cc#\JJ	.	.	.	.	.	.	.	.	.	.	.	.	.	.	.
=73	=73	=73	=73	=73	=73	=73	=73	=73	=73	=73	=73	=73	=73	=73	=73	=73	=73	=73	=73	=73	=73
4D\	.	4A/	4d\	4d/	.	4dd\	.	4D/	-cem	4A\	-cem	.	4d\	-cem	.	4dd\	-cem	4ff#\	4aa\	4d/	4dd\
4AA/	.	4A/	4e\	4e/	.	4cc#\	.	4AA/	pa-	4A\	pa-	.	4e\	pa-	.	4cc#\	pa-	4ee\	4aa\	4e/	4cc#\
=74	=74	=74	=74	=74	=74	=74	=74	=74	=74	=74	=74	=74	=74	=74	=74	=74	=74	=74	=74	=74	=74
4DD/	.	4A/	4f#\	4f#/	.	4dd\	.	4D\	-cem	4A\	-cem	.	4f#\	-cem.	.	4dd\	-cem	4ff#\	4aa\	4d/	4dd\
!	!	!LO:TX:b:t=77.	!	!	!	!LO:TX:a:t=OAM&colon;D&colon;G&colon;	!	!	!	!	!	!	!	!	!	!	!	!	!	!	!
4r	.	4r	4r	4r	.	4r	.	4r	.	4r	.	.	4r	.	.	4r	.	4r	4r	4r	4r
==	==	==	==	==	==	==	==	==	==	==	==	==	==	==	==	==	==	==	==	==	==
*-	*-	*-	*-	*-	*-	*-	*-	*-	*-	*-	*-	*-	*-	*-	*-	*-	*-	*-	*-	*-	*-
!!!system-decoration: [(s1,s2)][(s3,s4)][(s5,s6,s7,s8)][(s9,s10,s11,s12)][(s13)]
!!!RDF**kern: > = above
!!!RDF**kern: < = below
!!!RDF**dynam: p = "pia"
!!!RDF**dynam: f = "for"
!!!EED: Leszek Kubiak
!!!EST: 2021-01-21
!!!ENC: Marcin Jachim
!!!END: 2021-01-18
